!!!OTL: Muede kehrt ein Wanderer zurueck nach der Heimat seiner Liebe Glueck
!!!ARE: Europa, Mitteleuropa, Deutschland, ???, Bielitz
!!!SCT: D1019
!!!YEM: Copyright 1995, estate of Helmut Schaffrath.
**kern
*ICvox
*Ivox
*M4/4
*k[f#]
*G:
{8.d
16d
=1
4.b
8a
8.g
16f#
8.g
16a
=2
4d
2r}
{8.f#
16g
=3
4.a
8g
8f#
8a
8ee
8dd
=4
4b
2r}
{8.d
16d
=5
4.b
8b
8.dd
16dd
8.cc
16b
=6
4a
2r}
{8.b
16a
=7
4.g
8d
8d
8cc
8b
8a
=8
4g
2r}
==
!!!AGN: Liebes - Lied
!! DVA-Signatur A 193 113
!!!ONB: ESAC (Essen Associative Code) Database: DVA
!!!AMT: simple quadruple
!!!AIN: vox
!!!EED: Helmut Schaffrath
!!!EEV: 1.0
*-
